X:19
T:The Ghost of His Former Self
R:reel
C: 1977, 2010 L.E. McCullough
M:4/4 
L:1/8
K:Em
dB|:A~F3 ~E3D|FEDE F~A3|B~e3 fedB|A~B3 dABA|
E~F3 ~E3A|FEDE F~A3|B~e3 fedB|1 AFED ~E3B:|2 AFED ~E3e|]
|: f~e3 fedB|f~e3 fbaf|f~e3 fedB|A~B3 d2 Bd|
f~e3 d~B3|~f3e f~a3|b~f3 afed|1 B~d3 ~e3e:|2 B~d3 ~e3B|]
  

